X: 4169
T: MONAGHAN TWIG
%R: reel
B: James Kerr "Merry Melodies" v.4 p.20 #169
Z: 2016 John Chambers <jc:trillian.mit.edu>
M: C|
L: 1/8
K: Dmix
|:\
(3(ABA) (AG) FDGE | FDGF (3(EBE) E2 |\
(3(ABA) (AG) FDGE | FDGE (3(DED) D2 ::\
cA (3(Bcd) (3(ecA) AB | cABG (3(EGE) E2 |\
cA (3(Bcd) (3(ecA) AG | FDGE (3(DED) D2 :|

%%sep 1 1 500
%%sep 1 1 500

